packages/vapor/resources/icons/svg/card-type-PieChart-pie.svg

<svg enable-background="new 0 0 32 32" viewBox="0 0 32 32" xmlns="http://www.w3.org/2000/svg"><g fill="#f38130"><path d="m16 6c-5.523 0-10 4.477-10 10s4.477 10 10 10 10-4.477 10-10-4.477-10-10-10m-1 2.07v7.141l-6.949 1.65c-.03-.283-.048-.57-.048-.861 0-4.078 3.053-7.436 6.997-7.93m-6.481 10.736 7.172-1.703 5.212 5.212c-1.355 1.052-3.052 1.685-4.9 1.685-3.43 0-6.347-2.162-7.484-5.194m13.798 2.094-5.318-5.318v-7.513c3.947.491 7 3.851 7 7.931 0 1.848-.633 3.545-1.686 4.9"/><path d="m30.006 0h-28.012c-1.101 0-1.994.893-1.994 1.994v28.012c0 1.101.893 1.994 1.994 1.994h28.012c1.101 0 1.994-.893 1.994-1.994v-28.012c0-1.101-.893-1.994-1.994-1.994zm-.006 30h-28v-28h28z"/></g></svg>

<svg xmlns="http://www.w3.org/2000/svg" viewBox="0 0 32 32" enable-background="new 0 0 32 32">
  <g fill="#f38130">
    <path
        d="m16 6c-5.523 0-10 4.477-10 10 0 5.523 4.477 10 10 10s10-4.477 10-10c0-5.523-4.477-10-10-10m-1 2.07v7.141l-6.949 1.65c-.03-.283-.048-.57-.048-.861 0-4.078 3.053-7.436 6.997-7.93m-6.481 10.736l7.172-1.703 5.212 5.212c-1.355 1.052-3.052 1.685-4.9 1.685-3.43 0-6.347-2.162-7.484-5.194m13.798 2.094l-5.318-5.318v-7.513c3.947.491 7 3.851 7 7.931 0 1.848-.633 3.545-1.686 4.9"/>
    <path d="M30.006,0H1.994C0.893,0,0,0.893,0,1.994v28.012C0,31.107,0.893,32,1.994,32h28.012
		C31.107,32,32,31.107,32,30.006V1.994C32,0.893,31.107,0,30.006,0z M30,30H2V2h28V30z"/>
  </g>
</svg>
